logos/aws-codedeploy.svg

<?xml version="1.0" encoding="UTF-8"?>
<svg width="256px" height="256px" viewBox="0 0 256 256" version="1.1" xmlns="http://www.w3.org/2000/svg" xmlns:xlink="http://www.w3.org/1999/xlink" preserveAspectRatio="xMidYMid">
    <title>AWS CodeDeploy</title>
    <defs>
        <linearGradient x1="0%" y1="100%" x2="100%" y2="0%" id="linearGradient-1">
            <stop stop-color="#2E27AD" offset="0%"></stop>
            <stop stop-color="#527FFF" offset="100%"></stop>
        </linearGradient>
    </defs>
    <g>
        <rect fill="url(#linearGradient-1)" x="0" y="0" width="256" height="256"></rect>
        <path d="M89.6009971,214.343363 L172.804415,214.343363 L172.804415,159.461947 L89.6009971,159.461947 L89.6009971,214.343363 Z M176.004547,153.00531 L86.4008656,153.00531 C84.631193,153.00531 83.2007341,154.451596 83.2007341,156.233628 L83.2007341,217.571681 C83.2007341,219.353713 84.631193,220.8 86.4008656,220.8 L176.004547,220.8 C177.774219,220.8 179.204678,219.353713 179.204678,217.571681 L179.204678,156.233628 C179.204678,154.451596 177.774219,153.00531 176.004547,153.00531 L176.004547,153.00531 Z M118.706193,208.635696 L138.086189,164.246315 L143.942429,166.851568 L124.562433,211.240949 L118.706193,208.635696 Z M155.318897,187.235172 L144.419249,176.533296 L148.880232,171.903887 L162.46799,185.243299 C163.136818,185.901876 163.488832,186.825175 163.42803,187.767844 C163.367228,188.710513 162.900008,189.578931 162.151177,190.143887 L146.960153,201.601189 L143.129596,196.432651 L155.318897,187.235172 Z M100.449443,186.108489 C99.777415,185.449911 99.4254006,184.529841 99.4862032,183.587172 C99.5470058,182.644503 100.014225,181.776085 100.763056,181.211129 L115.95408,169.753827 L119.787837,174.922364 L107.595336,184.116616 L118.498184,194.82172 L114.037201,199.451129 L100.449443,186.108489 Z M211.340398,112.160623 C205.199346,106.168864 197.02941,102.869522 188.334653,102.869522 C176.999788,102.869522 167.741807,106.90492 162.003972,113.623051 C160.595914,82.6860742 153.523623,57.7957379 143.411208,45.9413523 C179.604694,51.4101238 207.074623,78.1502867 213.151672,113.945883 C212.553248,113.345416 211.945223,112.751405 211.340398,112.160623 L211.340398,112.160623 Z M153.811635,113.271164 L152.665988,112.160623 C146.524935,106.168864 138.338999,102.869522 129.621841,102.869522 C118.533386,102.869522 109.509015,106.601459 103.767979,112.958018 C105.880066,72.284432 118.344578,44.8792355 129.650642,44.8566371 C129.669843,44.8566371 129.682644,44.8598656 129.705044,44.8598656 C141.196716,44.9276602 153.878838,73.2852106 155.654911,115.095164 C155.053286,114.491469 154.461261,113.897459 153.811635,113.271164 L153.811635,113.271164 Z M97.239711,115.427681 C96.3852758,114.536666 95.486039,113.652106 94.5356,112.72235 L93.956376,112.160623 C87.8153238,106.168864 79.6325875,102.869522 70.9122294,102.869522 C61.0142227,102.869522 52.66828,105.86863 46.8952429,111.104963 C54.5019552,76.8137629 81.3894598,51.3455574 115.899677,45.9574938 C105.601654,58.0475469 98.4525606,83.6642547 97.239711,115.427681 L97.239711,115.427681 Z M129.685844,38.4 C79.5397837,38.4 40.3253728,76.613607 38.4020941,127.298209 C38.3572922,128.5056 39.03572,129.6 40.0245606,130.206924 L72.8003069,151.75595 L76.2948506,146.345289 L45.291977,125.99074 C46.9260042,119.084013 51.9709728,113.881451 59.2224995,111.247739 C62.6647949,109.997517 66.6043152,109.326159 70.9122294,109.326159 C77.962119,109.326159 84.5671904,111.979837 89.5081933,116.802945 L90.087417,117.367901 C94.5003984,121.668021 97.1149059,129.52252 97.1149059,129.551575 C97.1373066,129.748503 101.495886,146.048283 101.495886,146.048283 L107.668939,144.359873 L103.515169,128.883313 L103.54077,128.489459 C105.089633,114.359108 118.027765,109.326159 129.621841,109.326159 C136.671731,109.326159 143.273602,111.979837 148.214605,116.802945 C148.214605,116.802945 155.190892,122.161954 155.702913,128.473317 L155.731714,128.902683 L151.536341,144.350188 L157.712595,146.057968 L162.077574,129.961572 C162.103175,129.842124 162.112776,129.703306 162.128777,129.564489 C162.996012,117.232311 173.271634,109.326159 188.334653,109.326159 C195.358941,109.326159 201.948012,111.979837 206.889015,116.802945 C210.729173,120.547795 213.436484,123.382259 214.188515,126.168297 L186.54258,145.586634 L190.20033,150.887533 L219.433531,130.34897 C220.230363,129.719448 220.803187,127.453168 220.800013,127.330492 C219.90395,76.632977 180.791943,38.4355114 129.685844,38.4 Z" fill="#FFFFFF"></path>
    </g>
</svg>

<svg preserveAspectRatio="xMidYMid" viewBox="0 0 256 256" xmlns="http://www.w3.org/2000/svg">
  <defs>
    <linearGradient id="aws-codedeploy_svg__a" x1="0%" x2="100%" y1="100%" y2="0%">
      <stop offset="0%" stop-color="#2E27AD"/>
      <stop offset="100%" stop-color="#527FFF"/>
    </linearGradient>
  </defs>
  <path fill="url(#aws-codedeploy_svg__a)" d="M0 0h256v256H0z"/>
  <path fill="#FFF" d="M89.601 214.343h83.203v-54.881H89.601v54.881Zm86.404-61.338H86.4c-1.77 0-3.2 1.447-3.2 3.229v61.338c0 1.782 1.43 3.228 3.2 3.228h89.604c1.77 0 3.2-1.446 3.2-3.228v-61.338c0-1.782-1.43-3.229-3.2-3.229Zm-57.299 55.63 19.38-44.389 5.856 2.606-19.38 44.389-5.856-2.605Zm36.613-21.4-10.9-10.702 4.461-4.63 13.588 13.34a3.253 3.253 0 0 1-.317 4.9l-15.19 11.458-3.831-5.168 12.189-9.198Zm-54.87-1.127a3.237 3.237 0 0 1-.963-2.52 3.237 3.237 0 0 1 1.277-2.377l15.191-11.457 3.834 5.168-12.193 9.195 10.903 10.705-4.46 4.63-13.589-13.344Zm110.891-73.947c-6.14-5.992-14.31-9.291-23.005-9.291-11.335 0-20.593 4.035-26.331 10.753-1.408-30.937-8.48-55.827-18.593-67.682 36.194 5.47 63.664 32.21 69.74 68.005a189.27 189.27 0 0 0-1.81-1.785Zm-57.528 1.11-1.146-1.11c-6.141-5.992-14.327-9.291-23.044-9.291-11.089 0-20.113 3.731-25.854 10.088 2.112-40.674 14.577-68.079 25.883-68.101.019 0 .032.003.054.003 11.492.068 24.174 28.425 25.95 70.235a126.628 126.628 0 0 0-1.843-1.824Zm-56.572 2.157a120.349 120.349 0 0 0-2.704-2.706l-.58-.561c-6.14-5.992-14.323-9.291-23.044-9.291-9.898 0-18.244 2.999-24.017 8.235 7.607-34.291 34.494-59.76 69.005-65.148-10.298 12.09-17.447 37.707-18.66 69.47ZM129.686 38.4c-50.146 0-89.36 38.214-91.284 88.898-.045 1.208.634 2.302 1.623 2.909L72.8 151.756l3.495-5.41-31.003-20.355c1.634-6.907 6.679-12.11 13.93-14.743 3.443-1.25 7.382-1.922 11.69-1.922 7.05 0 13.655 2.654 18.596 7.477l.58.565c4.412 4.3 7.027 12.155 7.027 12.184.022.197 4.38 16.496 4.38 16.496l6.174-1.688-4.154-15.477.026-.394c1.549-14.13 14.487-19.163 26.08-19.163 7.05 0 13.653 2.654 18.594 7.477 0 0 6.976 5.359 7.488 11.67l.029.43-4.196 15.447 6.177 1.708 4.365-16.096c.025-.12.035-.259.05-.398.868-12.332 11.144-20.238 26.207-20.238 7.024 0 13.613 2.654 18.554 7.477 3.84 3.745 6.547 6.58 7.3 9.365l-27.646 19.419 3.657 5.3 29.234-20.538c.796-.63 1.37-2.896 1.366-3.019-.896-50.697-40.008-88.894-91.114-88.93Z"/>
</svg>
